dist/assets/img/icons/logo.svg

<svg width="150" height="38" viewBox="0 0 150 38" fill="none" xmlns="http://www.w3.org/2000/svg">
<path d="M21.9012 2.18706C22.5675 0.526489 24.6848 0.135656 25.9667 1.32239C26.7603 2.00804 26.9871 3.0733 26.563 4.02448L11.4935 35.9091C10.8034 37.5144 8.77449 37.9017 7.42801 36.8278C6.58314 36.1058 6.53941 35.0845 6.94015 34.1257L10.6804 26.1816L0.218511 4.02448C-0.252104 3.08611 0.0706135 1.9691 0.868992 1.32239C2.25527 0.199476 4.35932 0.432357 5.15133 2.13302L13.5534 20.7233L21.9012 2.18706Z" fill="#D29191"/>
<path d="M41.2907 27.8568C38.6888 27.8568 36.3941 27.2984 34.4065 26.1816C32.455 25.0647 30.9372 23.4795 29.8531 21.4259C28.8051 19.3363 28.2811 16.9224 28.2811 14.1843C28.2811 11.4102 28.8051 8.99631 29.8531 6.94273C30.9372 4.85312 32.455 3.24988 34.4065 2.13302C36.3941 1.01616 38.6888 0.45773 41.2907 0.45773C43.8927 0.45773 46.1694 1.01616 48.1208 2.13302C50.1084 3.24988 51.6262 4.85312 52.6742 6.94273C53.7583 8.99631 54.3004 11.4102 54.3004 14.1843C54.3004 16.9224 53.7583 19.3363 52.6742 21.4259C51.6262 23.4795 50.1084 25.0647 48.1208 26.1816C46.1694 27.2984 43.8927 27.8568 41.2907 27.8568ZM46.8198 21.1557C48.1208 19.5705 48.7713 17.2467 48.7713 14.1843C48.7713 11.158 48.1208 8.8522 46.8198 7.26698C44.1816 3.97923 38.3999 3.97924 35.7617 7.26698C34.4607 8.8522 33.8102 11.158 33.8102 14.1843C33.8102 17.2467 34.4426 19.5705 35.7074 21.1557C38.3353 24.3577 44.2138 24.4218 46.8198 21.1557Z" fill="#D29191"/>
<path d="M81.2115 0.565811C82.0427 0.565811 82.6932 0.818006 83.163 1.32239C83.6689 1.79076 83.9219 2.42124 83.9219 3.21385V25.3709C83.9219 29.406 82.8377 32.4504 80.6694 34.504C78.5373 36.5576 75.3753 37.5843 71.1833 37.5843C67.2804 37.5843 64.028 36.8458 61.426 35.3686C59.9905 34.5564 58.6319 32.7086 59.9082 31.1534C60.9147 30.0497 62.3476 30.7906 63.4317 31.3696C65.8703 32.5176 68.358 33.3151 71.0748 33.3151C76.0619 33.3151 78.5554 30.8111 78.5554 25.8033V21.6421C76.9128 25.0732 73.336 26.6679 69.6655 26.6679C65.2567 26.6679 61.2789 24.4112 59.2578 20.4531C58.282 18.4716 57.7942 16.1838 57.7942 13.5899C57.7942 10.9958 58.3001 8.70809 59.312 6.72656C60.3238 4.74503 61.7151 3.21385 63.4859 2.13302C65.2928 1.01616 67.3527 0.45773 69.6655 0.45773C73.288 0.45773 76.8278 2.09305 78.5012 5.42956V3.15981C78.5012 1.56419 79.6484 0.565811 81.2115 0.565811ZM70.9664 22.3446C73.3154 22.3446 75.1584 21.57 76.4955 20.0208C77.8326 18.4716 78.5012 16.328 78.5012 13.5899C78.5012 10.8878 77.8326 8.76213 76.4955 7.21293C75.1946 5.62771 73.3515 4.8351 70.9664 4.8351C68.5813 4.8351 66.7022 5.6097 65.3289 7.15889C63.9918 8.70809 63.3233 10.8517 63.3233 13.5899C63.3233 16.328 64.0099 18.4716 65.3831 20.0208C66.7564 21.57 68.6175 22.3446 70.9664 22.3446Z" fill="#D29191"/>
<path d="M93.8335 27.7488C92.2432 27.7488 91.069 26.7893 91.069 25.1548V3.21385C91.069 1.60416 92.2472 0.565811 93.8335 0.565811C95.4042 0.565811 96.5439 1.63259 96.5439 3.21385V25.1548C96.5439 26.7608 95.4083 27.7488 93.8335 27.7488Z" fill="#D29191"/>
<path d="M114.442 27.8568C109.723 27.8568 105.408 25.6708 103.167 21.4259C102.119 19.3723 101.595 16.9945 101.595 14.2924C101.595 11.5543 102.137 9.14042 103.221 7.05081C105.512 2.7789 109.93 0.45773 114.713 0.45773C117.431 0.45773 120.269 1.21838 122.573 2.67344C123.949 3.61658 124.963 5.47684 123.82 6.99677C122.815 8.22131 121.357 7.26306 120.351 6.61848C118.726 5.58184 116.991 4.8351 115.039 4.8351C112.581 4.8351 110.666 5.66374 109.293 7.32102C107.956 8.97829 107.287 11.2841 107.287 14.2384C107.287 17.1926 107.956 19.4804 109.293 21.1016C110.63 22.6869 112.527 23.4795 114.984 23.4795C116.983 23.4795 118.731 22.739 120.405 21.6961C121.432 21.0445 122.991 20.1795 123.928 21.4259C125.184 22.9559 123.958 24.7028 122.627 25.5871C120.251 27.1664 117.271 27.8568 114.442 27.8568Z" fill="#D29191"/>
<path d="M147.151 3.10577C148.885 4.87113 149.752 7.5552 149.752 11.158V25.1548C149.752 26.7677 148.686 27.7488 147.096 27.7488C145.569 27.7488 144.494 26.6849 144.494 25.1548V23.1552C143.083 26.2654 140.025 27.8568 136.689 27.8568C132.069 27.8568 127.311 24.8096 127.311 19.7506C127.235 15.6922 129.965 13.6031 133.707 12.8333C137.217 12.0557 140.863 12.0767 144.44 12.0767C144.44 10.0873 144.642 7.70177 143.193 6.1321C141.414 4.20344 137.881 4.60839 135.605 5.26743C134.484 5.59168 133.256 6.06005 131.918 6.67252C130.858 7.25973 129.501 7.98245 128.503 6.88869C127.851 6.09386 127.849 4.79358 128.449 3.97044C129.747 2.24538 132.442 1.5658 134.412 1.10623C138.501 0.0654268 143.996 -0.172575 147.151 3.10577ZM137.664 23.8037C139.652 23.8037 141.278 23.1372 142.543 21.8042C144.281 19.9232 144.44 17.5735 144.44 15.1571C141.949 15.1571 139.425 15.1258 136.96 15.5353C134.747 15.903 132.732 16.8636 132.732 19.3723C132.732 22.0855 135.1 23.8037 137.664 23.8037Z" fill="#D29191"/>
</svg>

<svg width="150" height="38" fill="none" xmlns="http://www.w3.org/2000/svg"><path d="M21.901 2.187c.666-1.66 2.784-2.051 4.066-.865a2.282 2.282 0 01.596 2.702L11.493 35.91c-.69 1.605-2.719 1.993-4.065.919-.845-.722-.889-1.744-.488-2.702l3.74-7.944L.22 4.024C-.252 3.086.07 1.97.869 1.322 2.255.2 4.359.432 5.151 2.133l8.402 18.59 8.348-18.536zm19.389 25.67c-2.601 0-4.896-.559-6.883-1.675-1.952-1.117-3.47-2.702-4.554-4.756-1.048-2.09-1.572-4.504-1.572-7.242 0-2.774.524-5.188 1.572-7.241 1.084-2.09 2.602-3.693 4.553-4.81C36.395 1.016 38.69.458 41.291.458c2.602 0 4.878.558 6.83 1.675 1.987 1.117 3.505 2.72 4.553 4.81 1.084 2.053 1.626 4.467 1.626 7.241 0 2.738-.542 5.152-1.626 7.242-1.048 2.054-2.566 3.639-4.553 4.756-1.952 1.116-4.228 1.675-6.83 1.675zm5.53-6.701c1.3-1.585 1.951-3.91 1.951-6.972 0-3.026-.65-5.332-1.951-6.917-2.638-3.288-8.42-3.288-11.058 0-1.301 1.585-1.952 3.891-1.952 6.917 0 3.063.633 5.386 1.897 6.972 2.628 3.202 8.507 3.266 11.113 0zM81.212.566c.83 0 1.481.252 1.951.756.506.469.759 1.1.759 1.892V25.37c0 4.035-1.084 7.08-3.253 9.133-2.132 2.054-5.294 3.08-9.486 3.08-3.903 0-7.155-.738-9.757-2.215-1.436-.813-2.794-2.66-1.518-4.216 1.007-1.103 2.44-.362 3.524.217 2.438 1.148 4.926 1.945 7.643 1.945 4.987 0 7.48-2.504 7.48-7.512v-4.16c-1.642 3.43-5.219 5.025-8.89 5.025-4.408 0-8.386-2.257-10.407-6.215-.976-1.981-1.464-4.27-1.464-6.863 0-2.594.506-4.882 1.518-6.863 1.012-1.982 2.403-3.513 4.174-4.594 1.807-1.117 3.867-1.675 6.18-1.675 3.622 0 7.162 1.635 8.835 4.972V3.16c0-1.596 1.147-2.594 2.71-2.594zM70.966 22.345c2.35 0 4.192-.775 5.53-2.324 1.337-1.55 2.005-3.693 2.005-6.431 0-2.702-.668-4.828-2.005-6.377-1.301-1.585-3.144-2.378-5.53-2.378-2.385 0-4.264.775-5.637 2.324-1.337 1.55-2.006 3.693-2.006 6.43 0 2.739.687 4.883 2.06 6.432 1.373 1.549 3.235 2.324 5.583 2.324zm22.868 5.404c-1.59 0-2.765-.96-2.765-2.594V3.214c0-1.61 1.178-2.648 2.764-2.648 1.571 0 2.71 1.067 2.71 2.648v21.94c0 1.607-1.135 2.595-2.71 2.595zm20.608.108c-4.719 0-9.034-2.186-11.275-6.431-1.048-2.054-1.572-4.431-1.572-7.134 0-2.738.542-5.152 1.626-7.241 2.291-4.272 6.709-6.593 11.492-6.593 2.718 0 5.556.76 7.86 2.215 1.376.944 2.39 2.804 1.247 4.324-1.005 1.224-2.463.266-3.469-.379-1.625-1.036-3.36-1.783-5.312-1.783-2.458 0-4.373.829-5.746 2.486-1.337 1.657-2.006 3.963-2.006 6.917 0 2.955.669 5.242 2.006 6.864 1.337 1.585 3.234 2.378 5.691 2.378 1.999 0 3.747-.741 5.421-1.784 1.027-.652 2.586-1.517 3.523-.27 1.256 1.53.03 3.277-1.301 4.161-2.376 1.58-5.356 2.27-8.185 2.27zm32.709-24.751c1.734 1.765 2.601 4.45 2.601 8.052v13.997c0 1.613-1.066 2.594-2.656 2.594-1.527 0-2.602-1.064-2.602-2.594v-2c-1.411 3.11-4.469 4.702-7.805 4.702-4.62 0-9.378-3.047-9.378-8.106-.076-4.059 2.654-6.148 6.396-6.918 3.51-.777 7.156-.756 10.733-.756 0-1.99.202-4.375-1.247-5.945-1.779-1.929-5.312-1.524-7.588-.865-1.121.325-2.349.793-3.687 1.406-1.06.587-2.417 1.31-3.415.216-.652-.795-.654-2.095-.054-2.919 1.298-1.725 3.993-2.404 5.963-2.864 4.089-1.04 9.584-1.279 12.739 2zm-9.487 20.698c1.988 0 3.614-.667 4.879-2 1.738-1.88 1.897-4.23 1.897-6.647-2.491 0-5.015-.031-7.48.378-2.213.368-4.228 1.329-4.228 3.837 0 2.713 2.368 4.432 4.932 4.432z" fill="#D29191"/></svg>
